X: 72
T: No_34_The_Slender-legged_Animals.krn
N: Derived from No_34_The_Slender-legged_Animals.krn
%%abc-version 2.0
%%abcx-abcm2ps-target-version 5.9.1 (29 Sep 2008)
%%abc-creator hum2abc beta
%%abcx-conversion-date 2019/03/15 08:35:44
%%humdrum-veritas 38704193
%%humdrum-veritas-data 2394950884
%%linebreak <none>
%%barnumbers 0
L: 1/8
M: 2/4
K: E clef=bass
[K:clef=bass][M:2/4]z B,, (3C,C,B, | 
B,2G,3/E,/ ||  
[M:3/4]F,4z G, ||  
[M:2/4]G,F, E,F, | 
F,2E,3/B,,/ ||  
[M:3/4]E,4z F, ||  
[M:2/4]F,E, C,F, | 
E,2C,B,, | 
C,B,, B,,B,, | 
B,,4 | 
B,,B,, B,, z |]  



